X: 227
T: Templehouse Reel
R: reel
M: 4/4
L: 1/8
K: Emin
EFGA BFAF|D2FD ADFD|EFGA BEEB|1 dBAc BEED:|2 B2Ad BEE2||
g2ef gfeg|f2df afdf|g2ef gfed|B2Ac BE~E2|
g2ef gfeg|f2df afdf|edef gfed|B2Ac BEED||


https://www.youtube.com/watch?v=AHPRe9EuVsU

